X:1
T:Heigh ho! My Nancy Oh
M:6/8
L:1/8
K:C
 G2- G B2 B| A2 B c3| B2- d d2 B| c2 B A3|B-d dd-B G| EDE GAB| d2 B A2 G|\
 E2 G G3|
